X: 24609
T: Mac Morin's
R: jig
M: 6/8
K: Edorian
D|:~E3 FED|EFA ~B3|EBE BdB|ABd FED|
EDE FED|EFA Bde|fed BAF|1 EFE E2D:|2 EFE Eef||
|:gfe fed|Bee ede|fed cBA|~B3 Bef|
gfe fed|efd edB|BAF BAF|EFE E3:|

